flaticon/technology/video-card.svg

<svg xmlns="http://www.w3.org/2000/svg" width="32" height="32" viewBox="0 0 24 24">
    <path d="M3.199219 6.398438C3.199219 6.621094 3.019531 6.800781 2.800781 6.800781 2.578125 6.800781 2.398438 6.621094 2.398438 6.398438 2.398438 6.179688 2.578125 6 2.800781 6 3.019531 6 3.199219 6.179688 3.199219 6.398438zM3.199219 16.800781C3.199219 17.019531 3.019531 17.199219 2.800781 17.199219 2.578125 17.199219 2.398438 17.019531 2.398438 16.800781 2.398438 16.578125 2.578125 16.398438 2.800781 16.398438 3.019531 16.398438 3.199219 16.578125 3.199219 16.800781zM22.800781 6.398438C22.800781 6.621094 22.621094 6.800781 22.398438 6.800781 22.179688 6.800781 22 6.621094 22 6.398438 22 6.179688 22.179688 6 22.398438 6 22.621094 6 22.800781 6.179688 22.800781 6.398438zM22.800781 16.800781C22.800781 17.019531 22.621094 17.199219 22.398438 17.199219 22.179688 17.199219 22 17.019531 22 16.800781 22 16.578125 22.179688 16.398438 22.398438 16.398438 22.621094 16.398438 22.800781 16.578125 22.800781 16.800781zM22.800781 16.800781"/>
    <path d="M 24 4.800781 L 2 4.800781 L 2 3.601562 C 2 3.378906 1.820312 3.199219 1.601562 3.199219 L 0.398438 3.199219 C 0.179688 3.199219 0 3.378906 0 3.601562 C 0 3.820312 0.179688 4 0.398438 4 L 1.199219 4 L 1.199219 6 L 0 6 L 0 8.398438 L 1.199219 8.398438 L 1.199219 9.601562 L 0.800781 9.601562 C 0.578125 9.601562 0.398438 9.777344 0.398438 10 C 0.398438 10.222656 0.578125 10.398438 0.800781 10.398438 L 1.199219 10.398438 L 1.199219 10.800781 L 0 10.800781 L 0 16.800781 L 1.199219 16.800781 L 1.199219 17.199219 L 0.800781 17.199219 C 0.578125 17.199219 0.398438 17.378906 0.398438 17.601562 C 0.398438 17.820312 0.578125 18 0.800781 18 L 1.199219 18 L 1.199219 20.398438 C 1.199219 20.621094 1.378906 20.800781 1.601562 20.800781 C 1.820312 20.800781 2 20.621094 2 20.398438 L 2 18.398438 L 4.398438 18.398438 L 4.398438 20 L 14.800781 20 L 14.800781 18.398438 L 24 18.398438 Z M 0.800781 7.601562 L 0.800781 6.800781 L 1.199219 6.800781 L 1.199219 7.601562 Z M 0.800781 16 L 0.800781 11.601562 L 1.199219 11.601562 L 1.199219 16 Z M 14 19.199219 L 13.601562 19.199219 L 13.601562 18.800781 L 12.800781 18.800781 L 12.800781 19.199219 L 12.398438 19.199219 L 12.398438 18.800781 L 11.601562 18.800781 L 11.601562 19.199219 L 11.199219 19.199219 L 11.199219 18.800781 L 10.398438 18.800781 L 10.398438 19.199219 L 10 19.199219 L 10 18.800781 L 9.199219 18.800781 L 9.199219 19.199219 L 8.800781 19.199219 L 8.800781 18.800781 L 8 18.800781 L 8 19.199219 L 7.601562 19.199219 L 7.601562 18.800781 L 6.800781 18.800781 L 6.800781 19.199219 L 6.398438 19.199219 L 6.398438 18.800781 L 5.601562 18.800781 L 5.601562 19.199219 L 5.199219 19.199219 L 5.199219 18.398438 L 14 18.398438 Z M 23.199219 17.601562 L 2 17.601562 L 2 5.601562 L 23.199219 5.601562 Z M 23.199219 17.601562"/>
    <path d="M 6.800781 17.199219 L 11.917969 17.199219 L 11.082031 16.492188 C 10.714844 16.1875 10.378906 15.828125 10.074219 15.421875 L 10.058594 15.398438 C 9.386719 14.625 8.953125 13.515625 8.832031 12.246094 C 8.808594 12 8.800781 11.792969 8.800781 11.601562 C 8.800781 11.40625 8.808594 11.199219 8.835938 10.925781 C 8.953125 9.683594 9.386719 8.574219 10.074219 7.777344 C 10.378906 7.371094 10.71875 7.011719 11.082031 6.707031 L 11.917969 6 L 6.800781 6 C 4.59375 6 2.800781 8.511719 2.800781 11.601562 C 2.800781 14.6875 4.59375 17.199219 6.800781 17.199219 Z M 6.800781 6.800781 L 9.839844 6.800781 C 9.703125 6.953125 9.574219 7.113281 9.453125 7.277344 C 8.675781 8.175781 8.171875 9.445312 8.035156 10.882812 C 8.011719 11.152344 8 11.378906 8 11.601562 C 8 11.820312 8.011719 12.046875 8.039062 12.347656 C 8.171875 13.75 8.671875 15.015625 9.445312 15.914062 C 9.570312 16.082031 9.703125 16.246094 9.84375 16.398438 L 6.800781 16.398438 C 5.035156 16.398438 3.601562 14.246094 3.601562 11.601562 C 3.601562 8.953125 5.035156 6.800781 6.800781 6.800781 Z M 6.800781 6.800781"/>
    <path d="M 10 11.601562 C 10 14.035156 11.523438 16.273438 13.789062 17.171875 L 13.863281 17.199219 L 18.136719 17.199219 L 18.210938 17.171875 C 20.476562 16.273438 22 14.035156 22 11.601562 C 22 9.167969 20.476562 6.925781 18.210938 6.027344 L 18.136719 6 L 13.863281 6 L 13.789062 6.027344 C 11.523438 6.925781 10 9.167969 10 11.601562 Z M 14.015625 6.800781 L 17.984375 6.800781 C 19.910156 7.597656 21.199219 9.515625 21.199219 11.601562 C 21.199219 13.683594 19.910156 15.601562 17.984375 16.398438 L 14.015625 16.398438 C 12.089844 15.601562 10.800781 13.683594 10.800781 11.601562 C 10.800781 9.515625 12.089844 7.597656 14.015625 6.800781 Z M 14.015625 6.800781"/>
    <path d="M 11.808594 11.644531 C 11.984375 11.804688 12.238281 11.859375 12.46875 11.785156 C 12.757812 11.691406 13.160156 11.652344 13.585938 11.71875 C 13.050781 12.082031 12.433594 12.585938 12.054688 13.152344 L 11.933594 13.328125 L 12.015625 13.527344 C 12.25 14.097656 12.941406 14.765625 13.476562 15.222656 C 13.597656 15.324219 13.746094 15.378906 13.898438 15.378906 C 13.976562 15.378906 14.050781 15.367188 14.125 15.339844 C 14.351562 15.253906 14.515625 15.054688 14.554688 14.816406 C 14.59375 14.574219 14.695312 14.277344 14.871094 13.984375 C 14.921875 14.574219 15.039062 15.234375 15.289062 15.769531 L 15.382812 15.960938 L 15.589844 15.992188 C 15.683594 16.007812 15.78125 16.011719 15.882812 16.011719 C 16.472656 16.011719 17.226562 15.804688 17.796875 15.613281 C 18.023438 15.539062 18.1875 15.351562 18.230469 15.117188 C 18.277344 14.882812 18.191406 14.636719 18.003906 14.480469 C 17.828125 14.332031 17.644531 14.113281 17.492188 13.84375 C 18 14.097656 18.59375 14.332031 19.152344 14.394531 L 19.363281 14.421875 L 19.503906 14.261719 C 19.90625 13.792969 20.1875 12.875 20.351562 12.1875 C 20.40625 11.953125 20.335938 11.71875 20.160156 11.554688 C 19.984375 11.394531 19.730469 11.339844 19.5 11.414062 C 19.210938 11.507812 18.808594 11.550781 18.382812 11.484375 C 18.917969 11.117188 19.535156 10.613281 19.914062 10.046875 L 20.03125 9.871094 L 19.953125 9.671875 C 19.71875 9.101562 19.027344 8.4375 18.492188 7.976562 C 18.308594 7.820312 18.066406 7.777344 17.84375 7.859375 C 17.617188 7.941406 17.453125 8.144531 17.414062 8.382812 C 17.375 8.628906 17.269531 8.921875 17.097656 9.214844 C 17.046875 8.625 16.929688 7.964844 16.675781 7.429688 L 16.585938 7.238281 L 16.375 7.207031 C 15.765625 7.113281 14.839844 7.359375 14.167969 7.585938 C 13.941406 7.660156 13.78125 7.847656 13.734375 8.082031 C 13.691406 8.316406 13.777344 8.5625 13.964844 8.71875 C 14.136719 8.867188 14.324219 9.085938 14.476562 9.355469 C 13.96875 9.101562 13.375 8.867188 12.816406 8.804688 L 12.605469 8.777344 L 12.464844 8.9375 C 12.0625 9.40625 11.78125 10.324219 11.617188 11.011719 C 11.5625 11.246094 11.632812 11.480469 11.808594 11.644531 Z M 16.695312 11.214844 C 16.769531 11.355469 16.800781 11.523438 16.78125 11.6875 L 16.761719 11.832031 C 16.757812 11.84375 16.757812 11.851562 16.753906 11.859375 C 16.675781 12.082031 16.5 12.265625 16.265625 12.351562 L 16.234375 12.363281 C 16.160156 12.382812 16.082031 12.398438 16 12.398438 C 15.558594 12.398438 15.199219 12.042969 15.199219 11.601562 C 15.199219 11.160156 15.558594 10.800781 16 10.800781 C 16.039062 10.800781 16.078125 10.804688 16.117188 10.8125 C 16.148438 10.816406 16.179688 10.824219 16.210938 10.832031 C 16.230469 10.839844 16.253906 10.84375 16.269531 10.851562 C 16.339844 10.878906 16.410156 10.914062 16.46875 10.964844 L 16.574219 11.046875 C 16.621094 11.097656 16.664062 11.148438 16.695312 11.210938 C 16.695312 11.210938 16.695312 11.210938 16.695312 11.214844 Z M 13.8125 14.453125 C 13.371094 14.0625 13.03125 13.691406 12.855469 13.410156 C 13.289062 12.871094 13.984375 12.394531 14.457031 12.105469 C 14.535156 12.339844 14.667969 12.554688 14.839844 12.730469 C 14.839844 12.746094 14.839844 12.761719 14.835938 12.78125 C 14.277344 13.28125 13.949219 13.925781 13.8125 14.453125 Z M 17.3125 14.929688 C 16.742188 15.109375 16.257812 15.207031 15.925781 15.214844 C 15.6875 14.566406 15.636719 13.734375 15.632812 13.175781 C 15.636719 13.175781 15.640625 13.171875 15.644531 13.171875 C 15.875 13.222656 16.109375 13.222656 16.339844 13.171875 C 16.359375 13.1875 16.386719 13.203125 16.410156 13.21875 C 16.558594 13.949219 16.9375 14.546875 17.3125 14.929688 Z M 19.511719 12.238281 C 19.359375 12.816406 19.1875 13.28125 19.019531 13.566406 C 18.355469 13.425781 17.628906 13.035156 17.15625 12.746094 C 17.15625 12.730469 17.15625 12.714844 17.15625 12.703125 C 17.230469 12.621094 17.296875 12.535156 17.355469 12.441406 C 17.367188 12.421875 17.375 12.402344 17.386719 12.382812 C 17.433594 12.300781 17.472656 12.214844 17.503906 12.121094 C 17.511719 12.105469 17.523438 12.089844 17.527344 12.074219 C 18.238281 12.359375 18.972656 12.359375 19.511719 12.238281 Z M 18.15625 8.746094 C 18.597656 9.140625 18.9375 9.507812 19.113281 9.789062 C 18.679688 10.328125 17.984375 10.804688 17.511719 11.09375 C 17.472656 10.976562 17.421875 10.867188 17.359375 10.765625 C 17.355469 10.757812 17.347656 10.746094 17.34375 10.734375 C 17.28125 10.640625 17.210938 10.546875 17.128906 10.46875 C 17.128906 10.453125 17.128906 10.4375 17.132812 10.421875 C 17.691406 9.917969 18.019531 9.273438 18.15625 8.746094 Z M 14.65625 8.269531 C 15.222656 8.09375 15.710938 7.992188 16.042969 7.984375 C 16.28125 8.632812 16.332031 9.46875 16.335938 10.023438 C 16.332031 10.023438 16.328125 10.027344 16.324219 10.03125 C 16.097656 9.976562 15.859375 9.976562 15.628906 10.027344 C 15.609375 10.011719 15.582031 9.996094 15.558594 9.980469 C 15.410156 9.253906 15.03125 8.652344 14.65625 8.269531 Z M 12.949219 9.636719 C 13.613281 9.773438 14.339844 10.164062 14.8125 10.453125 C 14.8125 10.46875 14.8125 10.488281 14.8125 10.503906 C 14.644531 10.679688 14.515625 10.890625 14.441406 11.125 C 14.011719 10.953125 13.574219 10.886719 13.175781 10.886719 C 12.914062 10.886719 12.667969 10.914062 12.457031 10.960938 C 12.609375 10.382812 12.78125 9.917969 12.949219 9.636719 Z M 12.949219 9.636719"/>
</svg>

<svg xmlns="http://www.w3.org/2000/svg" width="32" height="32" viewBox="0 0 24 24">
    <path d="M3.2 6.398a.401.401 0 1 1-.803.003.401.401 0 0 1 .802-.003zm0 0M3.2 16.8a.4.4 0 1 1-.801-.003.4.4 0 0 1 .8.004zm0 0M22.8 6.398a.401.401 0 1 1 0 0zm0 0M22.8 16.8a.401.401 0 1 1-.801-.004.401.401 0 0 1 .802.005zm0 0"/>
    <path d="M24 4.8H2V3.603a.401.401 0 0 0-.398-.403H.398a.401.401 0 0 0 0 .801H1.2v2H0v2.398h1.2v1.204H.8a.398.398 0 1 0 0 .796h.4v.403H0v6h1.2v.398H.8a.401.401 0 0 0 0 .8l.4.001v2.398a.401.401 0 0 0 .8 0v-2h2.398V20h10.403v-1.602H24zM.8 7.603V6.8h.4v.8zM.8 16v-4.398h.4V16zM14 19.2h-.398v-.4H12.8v.4h-.403v-.4h-.796v.4h-.403v-.4h-.8v.4H10v-.4h-.8v.4h-.4v-.4H8v.4h-.398v-.4H6.8v.4h-.403v-.4h-.796v.4h-.403v-.802H14zm9.2-1.598H2v-12h21.2zm0 0"/>
    <path d="M6.8 17.2h5.118l-.836-.708a6.278 6.278 0 0 1-1.008-1.07l-.015-.024c-.672-.773-1.106-1.882-1.227-3.152a6.661 6.661 0 0 1 .004-1.32c.117-1.242.55-2.352 1.238-3.149a6.435 6.435 0 0 1 1.008-1.07L11.918 6H6.801c-2.207 0-4 2.512-4 5.602 0 3.085 1.793 5.597 4 5.597zm0-10.4h3.04a6.437 6.437 0 0 0-.387.477c-.777.899-1.281 2.168-1.418 3.606-.023.27-.035.496-.035.719 0 .218.012.445.04.746.132 1.402.632 2.668 1.405 3.566.125.168.258.332.399.484H6.8c-1.766 0-3.2-2.152-3.2-4.796 0-2.649 1.434-4.801 3.2-4.801zm0 0"/>
    <path d="M10 11.602c0 2.433 1.523 4.671 3.79 5.57l.073.027h4.274l.074-.027c2.266-.899 3.789-3.137 3.789-5.57a6.046 6.046 0 0 0-3.79-5.575L18.138 6h-4.274l-.074.027A6.046 6.046 0 0 0 10 11.602zM14.016 6.8h3.968a5.236 5.236 0 0 1 3.215 4.8c0 2.083-1.289 4-3.215 4.797h-3.968c-1.926-.796-3.215-2.714-3.215-4.796A5.236 5.236 0 0 1 14.016 6.8zm0 0"/>
    <path d="M11.809 11.645c.175.16.43.214.66.14a2.5 2.5 0 0 1 1.117-.066c-.535.363-1.152.867-1.531 1.433l-.121.176.082.2c.234.57.925 1.238 1.46 1.695a.656.656 0 0 0 .649.117.678.678 0 0 0 .43-.524c.039-.242.14-.539.316-.832.05.59.168 1.25.418 1.786l.094.19.207.032c.094.016.191.02.293.02.59 0 1.344-.207 1.914-.399a.64.64 0 0 0 .433-.496.663.663 0 0 0-.226-.637 2.368 2.368 0 0 1-.512-.636c.508.254 1.102.488 1.66.55l.211.028.14-.16c.403-.469.684-1.387.849-2.075a.65.65 0 0 0-.192-.632.676.676 0 0 0-.66-.14c-.29.093-.691.136-1.117.07.535-.368 1.152-.872 1.531-1.438l.117-.176-.078-.2c-.234-.57-.926-1.233-1.46-1.694a.645.645 0 0 0-.65-.118.672.672 0 0 0-.429.524c-.039.246-.144.539-.316.832-.051-.59-.168-1.25-.422-1.785l-.09-.192-.211-.031c-.61-.094-1.535.152-2.207.379a.646.646 0 0 0-.434.496.674.674 0 0 0 .23.637c.173.148.36.367.513.636-.508-.253-1.102-.488-1.66-.55l-.212-.028-.14.16c-.402.47-.684 1.387-.848 2.075a.65.65 0 0 0 .192.633zm4.886-.43c.075.14.106.308.086.473l-.02.144c-.003.012-.003.02-.007.027a.812.812 0 0 1-.488.493l-.032.011a.799.799 0 1 1-.117-1.55c.031.003.063.011.094.019.02.008.043.012.059.02.07.027.14.062.199.113l.105.082c.047.05.09.101.121.164v.004zm-2.883 3.238c-.44-.39-.78-.762-.957-1.043.434-.539 1.13-1.015 1.602-1.305.078.235.211.45.383.625 0 .016 0 .032-.004.051a3.475 3.475 0 0 0-1.024 1.672zm3.5.477c-.57.18-1.054.277-1.386.285-.239-.649-.29-1.48-.293-2.04l.012-.003c.23.05.464.05.695 0 .02.015.047.031.07.047.149.73.527 1.328.902 1.71zm2.2-2.692c-.153.578-.325 1.043-.492 1.328-.665-.14-1.391-.53-1.864-.82v-.043a1.85 1.85 0 0 0 .2-.262c.011-.02.019-.039.03-.058.048-.082.087-.168.118-.262.008-.016.02-.031.023-.047.711.285 1.446.285 1.985.164zm-1.356-3.492c.442.395.782.762.957 1.043-.433.54-1.129 1.016-1.601 1.305a1.572 1.572 0 0 0-.153-.328c-.004-.008-.011-.02-.015-.032a1.56 1.56 0 0 0-.215-.265c0-.016 0-.031.004-.047a3.503 3.503 0 0 0 1.023-1.676zm-3.5-.476c.567-.176 1.055-.278 1.387-.286.238.649.289 1.485.293 2.04-.004 0-.008.003-.012.007a1.547 1.547 0 0 0-.695-.004c-.02-.015-.047-.03-.07-.047a3.505 3.505 0 0 0-.903-1.71zM12.95 9.637c.664.136 1.39.527 1.864.816v.05a1.6 1.6 0 0 0-.372.622 3.415 3.415 0 0 0-1.265-.238 3.36 3.36 0 0 0-.719.074c.152-.578.324-1.043.492-1.324zm0 0"/>
</svg>
